X: 1
T: Damp In The Attic
M: 4/4
L: 1/8
R: reel
K: Amaj
|:EAcA B2AB|cE~E2 cBAF|EAcA BdAF|EdcA BAFA|
EAcA B2AB|cE~E2 cBAF|EAcA BAaf|1ecBd cAAF:|2ecBd cAAB||
|:ce~e2 fdaf|ecBd cBAF|EC~C2 EFAB|cBAB cB~B2|
ceee fdaf |ecBd cBAF|EC~C2 EFAB|1ceBc A3B:|2ceBc A3F||
